!!!COM: Bach, Johann Sebastian
!!!OPR: Chorale Harmonizations
!!!ONR: Nr. 71
!!!OTL: Meine Seele erhebet den Herrn
!!!SCT: BWV 324
!!!YEC: Copyright 1996, Center for Computer Assisted Research in the Humanities
!!!YEM: Rights to all derivative electronic formats reserved.
!!!YEM: Refer to licensing agreement for further details.
**kern	**kern	**kern	**kern
*ICvox	*ICvox	*ICvox	*ICvox
*Ibass	*Itenor	*Icalto	*Isoprn
*	*	*Ialto	*
*k[f#]	*k[f#]	*k[f#]	*k[f#]
*M4/4	*M4/4	*M4/4	*M4/4
*clefF4	*clefGv2	*clefG2	*clefG2
=1-	=1-	=1-	=1-
2E\	2G/	2e/	2b\
2F#\	2A/	2d/	2dd\
=2	=2	=2	=2
4G\	4B/	4d/	4b\
4F#\	4A/	4d#/	4b:\
4E\	4G/	4e/	4b\
4D#\	4F#/	4f#/	4b\
=3	=3	=3	=3
4E\	4G/	4e/	2cc\
4F#\	2A/	2d/	.
4G\	.	.	2b\
4E\	4G/	4e/	.
=4	=4	=4	=4
4C/	2G/	2e/	2a/
4AA/	.	.	.
2D\	2F#/	2d/	2a/
=5	=5	=5	=5
1GG;/,	1B;\,	1d;/,	1g;/,
=6	=6	=6	=6
2G\	1G/	1d/	2b\
2BB/	.	.	2dd\
=7	=7	=7	=7
0D\	0F#/	0d/	0a\
2C/	2A/	2e/	2e/
=8	=8	=8	=8
4BB/	2.B/	2e/	2g/
4AA/	.	.	.
2BB/	.	2d#/	2f#/
.	4A/	.	.
=9	=9	=9	=9
1EE;/	1G;/	1B;/	1e;/
==	==	==	==
*-	*-	*-	*-
!!!CDT: 1685/3//-1750/7/28
!!!OCY: Deutschland
!!!PDT: 1784//
!!!PPP: Leipzig
!!!AGN: chorale harmonization
!!!AST: baroque, choral
!!!AMT: simple quadruple
!!!YOR: Bach Gesellschaft, xxxix
!!!AIN: bass calto soprn tenor vox
!!!EEV: 1.0
!!!RDT: 1994 June 06
!!!YER: 1996 July 11
!!!YEN: United States of America
!!!EFL: 71/185
!!!ENC: S. Rasmussen
!!!EED: W.B. Hewlett
!!!VTS: 1548107191
